symbols/web/photo_size_select_large/materialsymbolsrounded/photo_size_select_large_wght100gradN25_48px.svg

<svg xmlns="http://www.w3.org/2000/svg" height="48" width="48"><path d="M9.7 39.4q-.4 0-.75-.35t-.35-.75V15.8h20.9q1.1 0 1.9.8.8.8.8 1.9v20.9Zm4.65-3.15h12.2q.5 0 .7-.425.2-.425-.1-.775l-3.7-4.8q-.25-.3-.6-.3t-.55.3l-3.35 4.55L17 32.3q-.15-.25-.5-.25t-.55.25l-2.2 2.7q-.25.45-.05.85.2.4.65.4ZM8.6 9.7q0-.4.35-.75t.75-.35v1.1Zm13.4 0V8.6h4.05v1.1Zm16.3 0V8.6q.4 0 .75.35t.35.75Zm-24.5 0V8.6h4.05v1.1ZM38.3 26v-4.05h1.1V26Zm0 13.4v-1.1h1.1q0 .45-.35.775t-.75.325Zm0-22.05V13.3h1.1v4.05Zm0 17.35v-4.05h1.1v4.05Zm-8.15-25V8.6h4.05v1.1Z"/></svg>

<svg xmlns="http://www.w3.org/2000/svg" height="48" width="48"><path d="M9.7 39.4Q9.3 39.4 8.95 39.05Q8.6 38.7 8.6 38.3V15.8H29.5Q30.6 15.8 31.4 16.6Q32.2 17.4 32.2 18.5V39.4ZM14.35 36.25H26.55Q27.05 36.25 27.25 35.825Q27.45 35.4 27.15 35.05L23.45 30.25Q23.2 29.95 22.85 29.95Q22.5 29.95 22.3 30.25L18.95 34.8L17 32.3Q16.85 32.05 16.5 32.05Q16.15 32.05 15.95 32.3L13.75 35Q13.5 35.45 13.7 35.85Q13.9 36.25 14.35 36.25ZM8.6 9.7Q8.6 9.3 8.95 8.95Q9.3 8.6 9.7 8.6V9.7ZM22 9.7V8.6H26.05V9.7ZM38.3 9.7V8.6Q38.7 8.6 39.05 8.95Q39.4 9.3 39.4 9.7ZM13.8 9.7V8.6H17.85V9.7ZM38.3 26V21.95H39.4V26ZM38.3 39.4V38.3H39.4Q39.4 38.75 39.05 39.075Q38.7 39.4 38.3 39.4ZM38.3 17.35V13.3H39.4V17.35ZM38.3 34.7V30.65H39.4V34.7ZM30.15 9.7V8.6H34.2V9.7Z"/></svg>
